X:40
T:Breakdown
M:2/4
L:1/16
Z: Jason R. Fruit <Jason R. Fruit@big-mac>
N: From Bob Walters.  Maybe derived from "Ball and Pin Hornpipe".
K:A
EF | A2AB cBcd | e2af edcA | BcdB GABG | ABcd e2aa |
A2AB cBcd | e2af edcA | BcdB GABG | AcBG A2 |]
fg | aece a2a2 | fece fecA | defe dcBA | GABc B2e2 |
aece a2ae | fece fecA | defe dcBA | GABG A2 |]
A,2 | A,CEA c2BA | GABc d2cB | cecA BAGB | AGAc BAEC |
A,CEA c2BA | GABc d2cB | cecA BAGB | A2a2 A2 :|

